icons/heartrate.svg

<svg xmlns="http://www.w3.org/2000/svg" viewBox="0 0 24 24" fill="currentColor">
  <path d="M9.71501 6.52958 12.6774 19.2768l.0111.0333c.1601.4802.5912.7198.9382.7776.3491.0582.9721-.0396 1.1848-.6776l1.9958-5.9872H19.5c.4142 0 .75-.3357.75-.75 0-.4142-.3358-.75-.75-.75h-2.9c-.5129 0-.8035.2923-.9194.4088l-.0109.0109-.1252.1252-1.7143 5.1429-3.0076-12.94167-.0111-.03325c-.1829-.54875-.6982-.73783-1.06148-.73783-.36324 0-.87859.18908-1.06151.73783l-.00578.01734-2.00755 7.16978H4.5c-.41421 0-.75.3358-.75.75s.33579.75.75.75h2.40002c.51288 0 .80354-.2922.91946-.4087.00381-.0038.00743-.0075.01087-.0109l.13892-.1389 1.74574-6.23482Z"/>
</svg>

<svg width="24" height="24" viewBox="0 0 24 24" fill="none" xmlns="http://www.w3.org/2000/svg">
<path fill-rule="evenodd" clip-rule="evenodd" d="M9.71501 6.52958L12.6774 19.2768L12.6885 19.3101C12.8486 19.7903 13.2797 20.0299 13.6267 20.0877C13.9758 20.1459 14.5988 20.0481 14.8115 19.4101L16.8073 13.4229H19.5C19.9142 13.4229 20.25 13.0872 20.25 12.6729C20.25 12.2587 19.9142 11.9229 19.5 11.9229H16.6C16.0871 11.9229 15.7965 12.2152 15.6806 12.3317C15.6768 12.3355 15.6731 12.3392 15.6697 12.3426L15.5445 12.4678L13.8302 17.6107L10.8226 4.66903L10.8115 4.63578C10.6286 4.08703 10.1133 3.89795 9.75002 3.89795C9.38678 3.89795 8.87143 4.08703 8.68851 4.63578L8.68273 4.65312L6.67518 11.8229H4.5C4.08579 11.8229 3.75 12.1587 3.75 12.5729C3.75 12.9871 4.08579 13.3229 4.5 13.3229H6.90002C7.4129 13.3229 7.70356 13.0307 7.81948 12.9142C7.82329 12.9104 7.82691 12.9067 7.83035 12.9033L7.96927 12.7644L9.71501 6.52958Z" fill="black"/>
</svg>
